hosted_logos/kurl.svg

<svg xmlns="http://www.w3.org/2000/svg" role="img" viewBox="-0.16 -0.16 53.82 52.26"><title>kURL logo</title><style>svg {isolation:isolate}</style><defs><clipPath id="_clipPath_GZuH8Hq6fpJ8XbQna1WSqxJq8LOTNNul"><path d="M0 0h54v52H0z"/></clipPath></defs><g clip-path="url(#_clipPath_GZuH8Hq6fpJ8XbQna1WSqxJq8LOTNNul)"><mask id="_mask_uXxCTWwwnaMSWLbCaCBW7sXFDo6tKYnF" width="400%" height="400%" x="-200%" y="-200%"><rect width="400%" height="400%" x="-200%" y="-200%" fill="#fff"/><path d="M48.082 12.12c-.295-.946-1.003-1.715-1.888-2.188L28.198 1.296C27.726 1.059 27.195 1 26.723 1c-.472 0-1.003 0-1.475.118L7.253 9.813c-.885.415-1.534 1.183-1.77 2.189l-4.426 19.46c-.177 1.006.059 2.012.65 2.84L14.156 49.74c.708.71 1.711 1.183 2.714 1.242h19.825c1.062.118 2.065-.355 2.714-1.242l12.449-15.438c.59-.828.826-1.834.708-2.84L48.082 12.12z"/></mask><path fill="none" d="M48.082 12.12c-.295-.946-1.003-1.715-1.888-2.188L28.198 1.296C27.726 1.059 27.195 1 26.723 1c-.472 0-1.003 0-1.475.118L7.253 9.813c-.885.415-1.534 1.183-1.77 2.189l-4.426 19.46c-.177 1.006.059 2.012.65 2.84L14.156 49.74c.708.71 1.711 1.183 2.714 1.242h19.825c1.062.118 2.065-.355 2.714-1.242l12.449-15.438c.59-.828.826-1.834.708-2.84L48.082 12.12z"/><path fill="none" stroke="#326DE6" stroke-width="2.857" d="M48.082 12.12c-.295-.946-1.003-1.715-1.888-2.188L28.198 1.296C27.726 1.059 27.195 1 26.723 1c-.472 0-1.003 0-1.475.118L7.253 9.813c-.885.415-1.534 1.183-1.77 2.189l-4.426 19.46c-.177 1.006.059 2.012.65 2.84L14.156 49.74c.708.71 1.711 1.183 2.714 1.242h19.825c1.062.118 2.065-.355 2.714-1.242l12.449-15.438c.59-.828.826-1.834.708-2.84L48.082 12.12h0z" mask="url(#_mask_uXxCTWwwnaMSWLbCaCBW7sXFDo6tKYnF)" vector-effect="non-scaling-stroke"/><path fill="#326DE6" fill-rule="evenodd" d="M13.401 26.565c-.342.362-.665.701-.968 1.017v-9.029l-2.39.395v14.937h2.39v-4.742c.356.263.718.583 1.087.958s.731.774 1.086 1.195c.356.422.689.857.998 1.304.31.448.583.876.82 1.285h2.766c-.237-.448-.533-.936-.889-1.462-.356-.527-.738-1.054-1.146-1.581-.408-.527-.83-1.024-1.264-1.492-.435-.467-.85-.866-1.245-1.195.738-.751 1.472-1.521 2.203-2.311.731-.791 1.426-1.555 2.084-2.292h-2.825c-.211.25-.464.543-.761.879-.296.336-.609.685-.938 1.047-.329.362-.665.724-1.008 1.087zm14.205 7.369c.738-.125 1.337-.247 1.798-.366V23.552h-2.39v8.357c-.158.039-.399.072-.721.099-.323.026-.629.039-.919.039-.804 0-1.367-.237-1.689-.711-.323-.474-.484-1.265-.484-2.371v-5.413H20.81v5.788c0 .699.073 1.341.217 1.927.145.586.386 1.09.722 1.511.335.422.783.751 1.343.988.56.237 1.255.356 2.084.356.883 0 1.693-.063 2.43-.188zm10.728-8.229c-.197-.066-.47-.135-.82-.207-.349-.073-.754-.109-1.215-.109-.263 0-.543.026-.839.079-.297.053-.504.099-.623.138v8.279h-2.39v-9.839c.461-.172 1.037-.333 1.729-.484.691-.152 1.458-.228 2.301-.228.158 0 .343.01.553.03.211.02.422.046.633.079.21.033.415.073.612.119.198.046.356.089.474.128l-.415 2.015zm3.902 8.14c.468.145 1.057.224 1.769.237l.335-1.976c-.316-.039-.576-.095-.78-.167-.204-.073-.365-.178-.484-.317-.119-.138-.201-.306-.247-.503-.046-.198-.069-.442-.069-.731V18.553l-2.391.395v11.894c0 .514.056.971.168 1.373.112.402.307.738.583 1.008.277.27.649.477 1.116.622z"/></g></svg>

<?xml version="1.0" encoding="UTF-8" standalone="no"?><!-- Generator: Gravit.io --><svg xmlns="http://www.w3.org/2000/svg" xmlns:xlink="http://www.w3.org/1999/xlink" style="isolation:isolate" viewBox="0 0 54 52" width="54pt" height="52pt"><defs><clipPath id="_clipPath_GZuH8Hq6fpJ8XbQna1WSqxJq8LOTNNul"><rect width="54" height="52"/></clipPath></defs><g clip-path="url(#_clipPath_GZuH8Hq6fpJ8XbQna1WSqxJq8LOTNNul)"><mask id="_mask_uXxCTWwwnaMSWLbCaCBW7sXFDo6tKYnF" x="-200%" y="-200%" width="400%" height="400%"><rect x="-200%" y="-200%" width="400%" height="400%" style="fill:white;"/><path d=" M 48.082 12.12 C 47.787 11.174 47.079 10.405 46.194 9.932 L 28.198 1.296 C 27.726 1.059 27.195 1 26.723 1 C 26.251 1 25.72 1 25.248 1.118 L 7.253 9.813 C 6.368 10.228 5.719 10.996 5.483 12.002 L 1.057 31.462 C 0.88 32.468 1.116 33.474 1.707 34.302 L 14.156 49.74 C 14.864 50.45 15.867 50.923 16.87 50.982 L 36.695 50.982 C 37.757 51.1 38.76 50.627 39.409 49.74 L 51.858 34.302 C 52.448 33.474 52.684 32.468 52.566 31.462 L 48.082 12.12 L 48.082 12.12 Z " fill="black" stroke="none"/></mask><path d=" M 48.082 12.12 C 47.787 11.174 47.079 10.405 46.194 9.932 L 28.198 1.296 C 27.726 1.059 27.195 1 26.723 1 C 26.251 1 25.72 1 25.248 1.118 L 7.253 9.813 C 6.368 10.228 5.719 10.996 5.483 12.002 L 1.057 31.462 C 0.88 32.468 1.116 33.474 1.707 34.302 L 14.156 49.74 C 14.864 50.45 15.867 50.923 16.87 50.982 L 36.695 50.982 C 37.757 51.1 38.76 50.627 39.409 49.74 L 51.858 34.302 C 52.448 33.474 52.684 32.468 52.566 31.462 L 48.082 12.12 L 48.082 12.12 Z " fill="none"/><path d=" M 48.082 12.12 C 47.787 11.174 47.079 10.405 46.194 9.932 L 28.198 1.296 C 27.726 1.059 27.195 1 26.723 1 C 26.251 1 25.72 1 25.248 1.118 L 7.253 9.813 C 6.368 10.228 5.719 10.996 5.483 12.002 L 1.057 31.462 C 0.88 32.468 1.116 33.474 1.707 34.302 L 14.156 49.74 C 14.864 50.45 15.867 50.923 16.87 50.982 L 36.695 50.982 C 37.757 51.1 38.76 50.627 39.409 49.74 L 51.858 34.302 C 52.448 33.474 52.684 32.468 52.566 31.462 L 48.082 12.12 L 48.082 12.12 Z " fill="none" mask="url(#_mask_uXxCTWwwnaMSWLbCaCBW7sXFDo6tKYnF)" vector-effect="non-scaling-stroke" stroke-width="2.857" stroke="rgb(50,109,230)" stroke-linejoin="miter" stroke-linecap="butt" stroke-miterlimit="4"/><path d=" M 13.401 26.565 C 13.059 26.927 12.736 27.266 12.433 27.582 L 12.433 18.553 L 10.043 18.948 L 10.043 33.885 L 12.433 33.885 L 12.433 29.143 C 12.789 29.406 13.151 29.726 13.52 30.101 C 13.889 30.476 14.251 30.875 14.606 31.296 C 14.962 31.718 15.295 32.153 15.604 32.6 C 15.914 33.048 16.187 33.476 16.424 33.885 L 19.19 33.885 C 18.953 33.437 18.657 32.949 18.301 32.423 C 17.945 31.896 17.563 31.369 17.155 30.842 C 16.747 30.315 16.325 29.818 15.891 29.35 C 15.456 28.883 15.041 28.484 14.646 28.155 C 15.384 27.404 16.118 26.634 16.849 25.844 C 17.58 25.053 18.275 24.289 18.933 23.552 L 16.108 23.552 C 15.897 23.802 15.644 24.095 15.347 24.431 C 15.051 24.767 14.738 25.116 14.409 25.478 C 14.08 25.84 13.744 26.202 13.401 26.565 Z  M 27.606 33.934 C 28.344 33.809 28.943 33.687 29.404 33.568 L 29.404 23.552 L 27.014 23.552 L 27.014 31.909 C 26.856 31.948 26.615 31.981 26.293 32.008 C 25.97 32.034 25.664 32.047 25.374 32.047 C 24.57 32.047 24.007 31.81 23.685 31.336 C 23.362 30.862 23.201 30.071 23.201 28.965 L 23.201 23.552 L 20.81 23.552 L 20.81 29.34 C 20.81 30.039 20.883 30.681 21.027 31.267 C 21.172 31.853 21.413 32.357 21.749 32.778 C 22.084 33.2 22.532 33.529 23.092 33.766 C 23.652 34.003 24.347 34.122 25.176 34.122 C 26.059 34.122 26.869 34.059 27.606 33.934 Z  M 38.334 25.705 C 38.137 25.639 37.864 25.57 37.514 25.498 C 37.165 25.425 36.76 25.389 36.299 25.389 C 36.036 25.389 35.756 25.415 35.46 25.468 C 35.163 25.521 34.956 25.567 34.837 25.606 L 34.837 33.885 L 32.447 33.885 L 32.447 24.046 C 32.908 23.874 33.484 23.713 34.176 23.562 C 34.867 23.41 35.634 23.334 36.477 23.334 C 36.635 23.334 36.82 23.344 37.03 23.364 C 37.241 23.384 37.452 23.41 37.663 23.443 C 37.873 23.476 38.078 23.516 38.275 23.562 C 38.473 23.608 38.631 23.651 38.749 23.69 L 38.334 25.705 L 38.334 25.705 Z  M 42.236 33.845 C 42.704 33.99 43.293 34.069 44.005 34.082 L 44.34 32.106 C 44.024 32.067 43.764 32.011 43.56 31.939 C 43.356 31.866 43.195 31.761 43.076 31.622 C 42.957 31.484 42.875 31.316 42.829 31.119 C 42.783 30.921 42.76 30.677 42.76 30.388 L 42.76 18.553 L 40.369 18.948 L 40.369 30.842 C 40.369 31.356 40.425 31.813 40.537 32.215 C 40.649 32.617 40.844 32.953 41.12 33.223 C 41.397 33.493 41.769 33.7 42.236 33.845 Z " fill-rule="evenodd" fill="rgb(50,109,230)"/></g></svg>
